X:1072
T:The bonny Lad.
M:C|
L:1/8
Q:1/2=104
Z:Jack Campin * www.campin.me.uk * 2009
K:G
d|B>AGd egdB|cedB AAAd|B>AGd egdB|cedB GGG:|
d|BGdG  eGdB|cedB AAAd|BGdG  eGdG|cedB GGG:|
<end>
<start>
